X:1
L:1/8
M:4/4
K:D
 d>c | (B>c)AA F>FDF | (G>A)EF D2 d>c | (B>c)AA F>FDF | G>B(TE>F) D3 || F/G/ | AF (AB/c/) ddBd | 
 Ae(A^G) A3 (F/G/) | AF (AB/c/) ddBd | cecA{G} !fermata!F2 d>c | (B>c)AA F>FDF | G>B(E>F) D2 d>c | 
 (B>c)AA F>FDF | G>BTE>F D2 ||
